X:1
T:Cowboy’s Carnival
T:Walter L. Rose
T:Cowboy’s Carnival
T:Public Domain
T:Public Domain
T:Public Domain
C:Walter L. Rose
Z:Public Domain
%%score ( 1 2 ) ( 3 4 )
L:1/8
M:4/4
K:G
V:1 treble 
V:2 treble 
V:3 bass 
V:4 bass 
V:1
 [DB][Dc] | ([Gd][Gd]) [Gd]>[Ge] [Gd]2 [DB]>[DG] | [EA]>[EA] [EG]>[CE] [B,D]2 ([B,D][B,D]) | %3
w: 1.~I’ve been|think- * ing to- day as my|thoughts be- gan to stray; Your *|
w: 2.~May we|lift~our * voic- es high till the|glor- ious by and by, And~be *|
w: 3.~As we|look~up- * on the plain to the|cow- boys who have fain While~the *|
 [DG]>[DG] [DG]>[DG] [DB]>[DB] [DA]>[^CG] | [DA]6 [DB]>[Dc] | [Gd]>[Gd] [Gd]>[Ge] [Gd]2 [DB]>[DG] | %6
w: mem- o- ry to me’s worth more than|gold; As you|ride up- on the plain midst the|
w: known by all thro’ God’s own brand of|love; For His|prop- er- ty we are, and He’ll|
w: rag- ing storm and light- ning flash- es|by; We will|meet to part no more on that|
 [EA]>[EA] [EG]>[CE] [B,D]2 [B,D][DG] | [DG]>[DG] [DG]>[DA] [GB]>[GB] [DA]>[DA] | [DG]6 || %9
w: sun- shine and the rain, You’ll be|round- ed up with- in the Mas- ter’s|fold.|
w: know us from a- far, And will|round us up in glo- ry by and|by.|
w: hap- py gold- en shore When we’re|round- ed up in glo- ry by and|by.|
"^Refrain" [DB]>[Dc] | [Gd]>[Gd] [Gd]>[Gd] [Ge]>[Gd] [GB]>[Gc] | (G2 F>F G2) [DG]>[DG] | %12
w: |||
w: We’ll be|round- ed up in glo- ry by and|by; * * * We’ll be|
w: |||
 [GB]>[GB] [GB]>[GB] [GB]>[Gd] G>[GB] | (F2 E>E F2) [GB]>[Gc] | [Gd]<[Gd] [Gd]>[Gd] [Gd]2 | %15
w: |||
w: ed up in glo- ry by and by;|the * * * mill- ing|is o’er, And we stam-|
w: |||
 [DB]>[DB] | [Ec]2 [Ec]>[Ec] [Ge]2 [Gg][Ge]/ | [Gd]<[Gd] [Gd][Dc] [DB]<[DG] [DA]>[DA] | %18
w: |||
w: pede no|more, We’ll be round- ed up|in glo- ry by and by. * *|
w: |||
 (D2 E>E D2) |] %19
w: |
w: |
w: |
V:2
 x2 | x8 | x8 | x8 | x8 | x8 | x8 | x8 | x6 || x2 | x8 | d6 x2 | x6 G3/2 x/ | A6 x2 | x6 | x2 | %16
w: ||||||||||||||||
w: |||||||||||round-|When|time|||
 x15/2 | x8 | G6 |] %19
w: |||
w: |||
V:3
 G,[G,A,] | ([G,B,][G,B,]) [G,B,]>[G,C] [G,B,]2 G,>[G,B,] | [C,C]>[C,C] [C,C]>[E,G,] G,2 G,2 | %3
 [G,B,]>[G,B,] [G,B,]>[G,B,] G,>G, [F,A,]>[E,A,] | [D,F,]6 G,>[G,A,] | %5
 [G,B,]>[G,B,] [G,B,]>[G,C] [G,B,]2 [G,D]>[B,,D] | [C,C]>[C,C] [C,C]>[E,G,] G,2 G,[G,B,] | %7
 [G,B,]>[G,B,] [G,B,]>[G,C] [D,D]>[D,D] [D,C]>[D,C] | [G,B,]6 || G,>[G,A,] | %10
 [G,B,]>[G,B,] [G,B,]>[G,B,] [G,C]>[G,B,] G,>[G,A,] | %11
 ([G,B,]2 [D,A,]>[D,A,] [G,B,]2) [G,B,]>[G,B,] | %12
 [G,D]>[G,D] [G,D]>[G,D] [G,D]>[G,B,] [G,B,]>[G,D] | ([D,D]2 [A,,^C]>[A,,C] [D,D]2) [G,D]>[G,E] | %14
 [G,B,]<[G,B,] [G,B,]<[G,B,] [G,B,]2 | G,>G, | [C,G,]2 [C,G,]>[C,G,] [C,C]2 [C,E][C,C]/ | %17
 [D,B,]<[D,B,] [D,B,][D,A,] [D,G,]<[D,B,] [D,C]>[D,C] | (B,2 C>C B,2) |] %19
V:4
 G, x | x6 G,3/2 x/ | x4 G,2 G,2 | x4 G,>G, x2 | x6 G,3/2 x/ | x8 | x4 G,2 G, x | x8 | x6 || %9
 G,3/2 x/ | x6 G,3/2 x/ | x8 | x8 | x8 | x6 | G,>G, | x15/2 | x8 | G,6 |] %19

